flaticon/arrows/transfer-8.svg

<svg xmlns="http://www.w3.org/2000/svg" width="32" height="32" viewBox="0 0 24 24">
    <path d="M 23.96875 17.449219 C 23.949219 17.398438 23.917969 17.355469 23.882812 17.316406 L 21.484375 14.917969 C 21.328125 14.761719 21.074219 14.761719 20.917969 14.917969 C 20.761719 15.074219 20.761719 15.328125 20.917969 15.484375 L 22.636719 17.199219 L 17.664062 17.199219 C 18.632812 15.699219 19.199219 13.914062 19.199219 12 C 19.199219 10.25 18.726562 8.613281 17.910156 7.199219 L 22.636719 7.199219 L 20.917969 8.917969 C 20.761719 9.074219 20.761719 9.324219 20.917969 9.484375 C 20.996094 9.5625 21.097656 9.601562 21.199219 9.601562 C 21.304688 9.601562 21.40625 9.5625 21.484375 9.484375 L 23.882812 7.082031 C 23.921875 7.046875 23.949219 7 23.96875 6.953125 C 24.011719 6.855469 24.011719 6.746094 23.96875 6.648438 C 23.949219 6.597656 23.917969 6.554688 23.882812 6.515625 L 21.484375 4.117188 C 21.328125 3.960938 21.074219 3.960938 20.917969 4.117188 C 20.761719 4.273438 20.761719 4.527344 20.917969 4.683594 L 22.636719 6.398438 L 17.390625 6.398438 C 15.644531 3.980469 12.804688 2.398438 9.601562 2.398438 C 4.308594 2.398438 0 6.707031 0 12 C 0 17.292969 4.308594 21.597656 9.601562 21.597656 C 12.625 21.597656 15.324219 20.191406 17.085938 18 L 22.636719 18 L 20.917969 19.714844 C 20.761719 19.875 20.761719 20.125 20.917969 20.28125 C 20.996094 20.359375 21.097656 20.398438 21.199219 20.398438 C 21.304688 20.398438 21.40625 20.359375 21.484375 20.28125 L 23.882812 17.882812 C 23.921875 17.847656 23.949219 17.800781 23.96875 17.753906 C 24.011719 17.65625 24.011719 17.546875 23.96875 17.449219 Z M 9.601562 20.800781 C 4.746094 20.800781 0.800781 16.851562 0.800781 12 C 0.800781 7.148438 4.746094 3.199219 9.601562 3.199219 C 12.328125 3.199219 14.769531 4.445312 16.382812 6.398438 L 11.199219 6.398438 C 10.980469 6.398438 10.800781 6.578125 10.800781 6.800781 C 10.800781 7.019531 10.980469 7.199219 11.199219 7.199219 L 16.96875 7.199219 C 17.875 8.582031 18.398438 10.230469 18.398438 12 C 18.398438 13.945312 17.765625 15.742188 16.695312 17.199219 L 11.199219 17.199219 C 10.980469 17.199219 10.800781 17.378906 10.800781 17.601562 C 10.800781 17.820312 10.980469 18 11.199219 18 L 16.03125 18 C 14.421875 19.722656 12.136719 20.800781 9.601562 20.800781 Z M 9.601562 20.800781"/>
</svg>

<svg xmlns="http://www.w3.org/2000/svg" width="32" height="32" viewBox="0 0 24 24">
    <path d="M23.969 17.45a.432.432 0 0 0-.086-.134l-2.399-2.398a.4.4 0 0 0-.566.566l1.719 1.715h-4.973A9.556 9.556 0 0 0 19.2 12c0-1.75-.472-3.387-1.289-4.8h4.727l-1.719 1.718a.4.4 0 0 0 .566.566l2.399-2.402a.356.356 0 0 0 .086-.129.376.376 0 0 0 0-.305.432.432 0 0 0-.086-.132l-2.399-2.399a.4.4 0 0 0-.566.567l1.719 1.714H17.39c-1.746-2.418-4.586-4-7.79-4C4.31 2.398 0 6.707 0 12s4.309 9.598 9.602 9.598A9.586 9.586 0 0 0 17.086 18h5.55l-1.718 1.715a.4.4 0 0 0 .566.566l2.399-2.398a.356.356 0 0 0 .086-.13.376.376 0 0 0 0-.304zM9.602 20.8C4.746 20.8.8 16.853.8 12s3.945-8.8 8.8-8.8a8.779 8.779 0 0 1 6.782 3.198h-5.184a.401.401 0 0 0 0 .801h5.77A8.725 8.725 0 0 1 18.399 12a8.75 8.75 0 0 1-1.704 5.2H11.2a.401.401 0 0 0 0 .8h4.832a8.775 8.775 0 0 1-6.43 2.8zm0 0"/>
</svg>
